src/assets/images/icon-individuals.svg

<svg width="64" height="64" viewBox="0 0 64 64" fill="none" xmlns="http://www.w3.org/2000/svg">
  <!-- Human figures -->
  <circle cx="20" cy="24" r="6" fill="#9B7FFF" opacity="0.8"/>
  <path d="M20 30V38C20 40.2091 21.7909 42 24 42H28" stroke="#9B7FFF" stroke-width="2" stroke-linecap="round"/>
  <path d="M16 36L20 38L24 36" stroke="#9B7FFF" stroke-width="2" stroke-linecap="round"/>
  
  <circle cx="32" cy="20" r="5" fill="#9B7FFF"/>
  <path d="M32 25V32C32 33.6569 33.3431 35 35 35H37" stroke="#9B7FFF" stroke-width="2" stroke-linecap="round"/>
  <path d="M28 30L32 32L36 30" stroke="#9B7FFF" stroke-width="2" stroke-linecap="round"/>
  
  <circle cx="44" cy="26" r="6" fill="#9B7FFF" opacity="0.8"/>
  <path d="M44 32V40C44 42.2091 45.7909 44 48 44H52" stroke="#9B7FFF" stroke-width="2" stroke-linecap="round"/>
  <path d="M40 38L44 40L48 38" stroke="#9B7FFF" stroke-width="2" stroke-linecap="round"/>
  
  <!-- Arrows indicating data flow -->
  <path d="M26 20L30 20" stroke="#9B7FFF" stroke-width="1.5" stroke-linecap="round" opacity="0.6"/>
  <path d="M38 24L42 24" stroke="#9B7FFF" stroke-width="1.5" stroke-linecap="round" opacity="0.6"/>
  
  <!-- Bar chart -->
  <rect x="12" y="48" width="4" height="8" fill="#9B7FFF" opacity="0.6"/>
  <rect x="18" y="44" width="4" height="12" fill="#9B7FFF"/>
  <rect x="24" y="50" width="4" height="6" fill="#9B7FFF" opacity="0.6"/>
</svg>

<svg xmlns="http://www.w3.org/2000/svg" width="64" height="64" fill="none" viewBox="0 0 64 64"><circle cx="20" cy="24" r="6" fill="#9b7fff" opacity=".8"/><path stroke="#9b7fff" stroke-linecap="round" stroke-width="2" d="M20 30v8a4 4 0 0 0 4 4h4"/><path stroke="#9b7fff" stroke-linecap="round" stroke-width="2" d="m16 36 4 2 4-2"/><circle cx="32" cy="20" r="5" fill="#9b7fff"/><path stroke="#9b7fff" stroke-linecap="round" stroke-width="2" d="M32 25v7a3 3 0 0 0 3 3h2"/><path stroke="#9b7fff" stroke-linecap="round" stroke-width="2" d="m28 30 4 2 4-2"/><circle cx="44" cy="26" r="6" fill="#9b7fff" opacity=".8"/><path stroke="#9b7fff" stroke-linecap="round" stroke-width="2" d="M44 32v8a4 4 0 0 0 4 4h4"/><path stroke="#9b7fff" stroke-linecap="round" stroke-width="2" d="m40 38 4 2 4-2"/><path stroke="#9b7fff" stroke-linecap="round" stroke-width="1.5" d="M26 20h4m8 4h4" opacity=".6"/><path fill="#9b7fff" d="M12 48h4v8h-4z" opacity=".6"/><path fill="#9b7fff" d="M18 44h4v12h-4z"/><path fill="#9b7fff" d="M24 50h4v6h-4z" opacity=".6"/></svg>
